X:27
T:Sleepy Maggy
T: aka Malcolm's Wedding, Jenny's Chickens (20th century Irish title)
R:strathspey or reel
% for strathspey set more dotted rhythms would be added
C:traditional
O:18th century Scottish
B:Bremner's Collections, 1757
N:melodic code 5153 5142
Z:Paul Stewart Cranford (P.S.C.), <http://www.cranfordpub.com>
L:1/8
Q:300
M:C
K:Bminor
Tf2 Bb fBde|Tf2 Bb eAce|Tf2 Bb fBde|(f/e/f/g/ a)f eAce:|
|:fBdB fBde|fBdB eAce|fBdB fBde|(f/e/f/g/ a)f eAce:|
